svgs/anemo.svg

<svg xmlns="http://www.w3.org/2000/svg" viewBox="0 0 192 192"><path d="M97.13 145.386a18.414 18.414 0 0 0 8.564 9.884 18.271 18.271 0 0 0 12.935 1.669 18.348 18.348 0 0 0 10.772-7.389 18.508 18.508 0 0 0 3.164-12.713 18.465 18.465 0 0 0-6.042-11.614 18.299 18.299 0 0 0-12.194-4.647h-85.61M72.671 46.61a18.41 18.41 0 0 1 8.563-9.881 18.274 18.274 0 0 1 12.934-1.668 18.347 18.347 0 0 1 10.769 7.388 18.51 18.51 0 0 1 3.164 12.711 18.468 18.468 0 0 1-6.04 11.613 18.298 18.298 0 0 1-12.192 4.646H16.488m123.445-.23a18.41 18.41 0 0 1 8.563-9.881 18.269 18.269 0 0 1 12.934-1.668 18.35 18.35 0 0 1 10.769 7.387 18.51 18.51 0 0 1 3.164 12.711 18.465 18.465 0 0 1-6.04 11.613 18.296 18.296 0 0 1-12.191 4.647H22.601" fill="none" stroke="#000" stroke-width="12" stroke-linecap="round" stroke-linejoin="round"/></svg>

<svg
    xmlns="http://www.w3.org/2000/svg"
    viewBox="0 0 192 192"
    id="vector">
    <path
        id="path"
        d="M 97.13 145.386 C 98.683 149.622 101.732 153.141 105.694 155.27 C 109.655 157.399 114.261 157.993 118.629 156.939 C 122.998 155.885 126.833 153.255 129.401 149.55 C 131.969 145.846 133.095 141.32 132.565 136.837 C 132.035 132.354 129.884 128.219 126.523 125.223 C 123.163 122.226 118.821 120.572 114.329 120.576 L 28.719 120.576 M 72.671 46.61 C 74.224 42.375 77.273 38.857 81.234 36.729 C 85.196 34.601 89.8 34.007 94.168 35.061 C 98.536 36.115 102.369 38.745 104.937 42.449 C 107.504 46.153 108.631 50.678 108.101 55.16 C 107.571 59.642 105.421 63.777 102.061 66.773 C 98.701 69.769 94.361 71.423 89.869 71.419 L 16.488 71.419 M 139.933 71.189 C 141.486 66.954 144.535 63.436 148.496 61.308 C 152.458 59.179 157.062 58.586 161.43 59.64 C 165.798 60.694 169.631 63.324 172.199 67.027 C 174.766 70.731 175.893 75.256 175.363 79.738 C 174.833 84.221 172.683 88.355 169.323 91.351 C 165.964 94.347 161.623 96.002 157.132 95.998 L 22.601 95.998"
        fill="none"
        stroke="#000000"
        stroke-width="12"
        stroke-linecap="round"
        stroke-linejoin="round"/>
</svg>
